X:12
T:Sty at night, The
C:Alan Lamb
R:scottische
M:4/4
K:G
EBAB GBFB|EBAB G2E2|cBAG EFGA|cBAG EFGE|\
DAGA FAEA|DAGA F2D2|BAGF BAGF|[1 B2A2 G2F2:|[2 B4-B4|]
E2G2 B2e2|d3c BcdB|c3B ABcA|F2FG AFGF|\
E2G2 B2e2|d3c BcdB|c3B ABcA|F4-F4:|

